upholstery/frontseat_back.blend_page14.svg

<?xml version="1.0" encoding="UTF-8" standalone="no"?>
<svg
   version="1.1"
   width="300.00mm"
   height="600.00mm"
   viewBox="0 0 300.00 600.00"
   id="svg3251"
   sodipodi:docname="frontseat_back.blend_page14.svg"
   inkscape:version="1.1.1 (c3084ef, 2021-09-22)"
   xmlns:inkscape="http://www.inkscape.org/namespaces/inkscape"
   xmlns:sodipodi="http://sodipodi.sourceforge.net/DTD/sodipodi-0.dtd"
   xmlns="http://www.w3.org/2000/svg"
   xmlns:svg="http://www.w3.org/2000/svg">
  <defs
     id="defs3255" />
  <sodipodi:namedview
     id="namedview3253"
     pagecolor="#ffffff"
     bordercolor="#666666"
     borderopacity="1.0"
     inkscape:pageshadow="2"
     inkscape:pageopacity="0.0"
     inkscape:pagecheckerboard="0"
     inkscape:document-units="mm"
     showgrid="false"
     inkscape:zoom="0.34880903"
     inkscape:cx="566.21241"
     inkscape:cy="1133.8583"
     inkscape:window-width="1792"
     inkscape:window-height="975"
     inkscape:window-x="0"
     inkscape:window-y="25"
     inkscape:window-maximized="1"
     inkscape:current-layer="svg3251" />
  <style
     type="text/css"
     id="style3207">
    path {
        fill: none;
        stroke-linecap: butt;
        stroke-linejoin: bevel;
        stroke-dasharray: none;
    }
    path.outer {
        stroke: #000000;
        stroke-dasharray: none;
        stroke-dashoffset: 0;
        stroke-width: 0.3;
        stroke-opacity: 1.0;
    }
    path.convex {
        stroke: #000000;
        stroke-dasharray: 0.50,1.00;
        stroke-dashoffset:0;
        stroke-width:0.2;
        stroke-opacity: 1.0
    }
    path.concave {
        stroke: #000000;
        stroke-dasharray: 1.00,0.50,0.20,0.50;
        stroke-dashoffset: 0;
        stroke-width: 0.2;
        stroke-opacity: 1.0
    }
    path.freestyle {
        stroke: #000000;
        stroke-dasharray: none;
        stroke-dashoffset: 0;
        stroke-width: 0.2;
        stroke-opacity: 1.0
    }
    path.outer_background {
        stroke: #ffffff;
        stroke-opacity: 1.0;
        stroke-width: 0.5
    }
    path.inner_background {
        stroke: #ffffff;
        stroke-opacity: 1.0;
        stroke-width: 0.2
    }
    path.sticker {
        fill: #e5e5e5;
        stroke: none;
        fill-opacity: 1.0;
    }
    path.arrow {
        fill: #000000;
    }
    text {
        font-style: normal;
        fill: #000000;
        fill-opacity: 1.0;
        stroke: none;
    }
    text, tspan {
        text-anchor:middle;
    }
    </style>
  <text
     style="font-size:10px"
     id="text3211"
     x="105.38563"
     y="471.4274"><tspan
       id="tspan3209">[8] I 8</tspan></text>
  <path
     class="sticker"
     d="M 15.000001,451.77619 5,451.61908 5.000059,376.06136 15.00006,375.90427 Z M 174.50025,351.365 l 13.13655,8.07683 4.29411,13.22466 -9.46266,3.23774 z m 7.968,24.53923 9.98322,-0.60012 5.73444,75.55868 -9.95943,0.91341 z m -167.46819,4e-5 -10.000001,-0.15709 1e-6,-38.06485 10,-1.25244 z m 0,-39.47438 -0.105055,-10.03099 64.332186,-5.7922 1.053185,9.94564 z m 65.280316,-5.87755 0.157095,-10 h 38.977309 l 0.1571,10 z m 39.291504,0 2.13901,-9.7698 42.01227,8.50895 -1.83108,9.83217 z m 42.3202,8.57132 6.21968,-6.20791 12.41012,12.04899 -6.02163,6.40026 z M 15.000001,527.6481 5,527.49101 v -75.55772 l 10.000001,-0.1571 z m 167.468249,6e-5 9.46264,3.23775 -4.29414,13.22467 -13.13656,8.07682 z m 5.75823,-75.87196 9.95943,0.9134 -5.73444,75.55868 -9.98322,-0.60012 z m -173.226479,115.3463 -10,-1.25246 L 5,527.80519 15.000001,527.6481 Z m 65.280315,5.87752 -1.053184,9.94563 -64.332182,-5.79216 0.105051,-10.03099 z m 39.291504,0 -0.1571,10 H 80.437412 l -0.157096,-10 z m 42.3202,-8.57129 1.83107,9.83218 -42.01226,8.50893 -2.13901,-9.76982 z m 12.60817,-12.24133 6.02163,6.40024 -12.4101,12.04902 -6.2197,-6.20793 z"
     id="path3213" />
  <path
     class="outer"
     d="m 168.11176,332.91575 12.41012,12.04899 -6.02163,6.40026 13.13655,8.07683 4.29411,13.22466 -9.46266,3.23774 9.98322,-0.60012 5.73444,75.55868 -9.95943,0.91341 9.95943,0.9134 -5.73444,75.55868 -9.98322,-0.60012 9.46264,3.23775 -4.29414,13.22467 -13.13656,8.07682 6.02163,6.40024 -12.4101,12.04902 -6.2197,-6.20793 1.83107,9.83218 -42.01226,8.50893 -2.13901,-9.76982 -0.1571,10 H 80.437412 l -0.157096,-10 -1.053184,9.94563 -64.332182,-5.79216 0.105051,-10.03099 -10,-1.25246 L 5,527.80519 15.000001,527.6481 5,527.49101 V 451.93329 L 15.000001,451.77619 5,451.61908 l 5.9e-5,-75.55772 10.000001,-0.15709 -10.000001,-0.15709 1e-6,-38.06485 10,-1.25244 -0.105055,-10.03099 64.332186,-5.7922 1.053185,9.94564 0.157095,-10 h 38.977309 l 0.1571,10 2.13901,-9.7698 42.01227,8.50895 -1.83108,9.83217 z"
     id="path3215" />
  <text
     transform="rotate(72.011152)"
     style="font-size:9px"
     id="text3219"
     x="400.9805"
     y="-59.257267"><tspan
       id="tspan3217">20:1</tspan></text>
  <text
     transform="rotate(-90)"
     style="font-size:9px"
     id="text3223"
     x="-356.16708"
     y="13.20006"><tspan
       id="tspan3221">12:1</tspan></text>
  <text
     transform="rotate(-5.1447396)"
     style="font-size:9px"
     id="text3227"
     x="17.542171"
     y="334.61972"><tspan
       id="tspan3225">10:1</tspan></text>
  <text
     transform="rotate(44.154194)"
     style="font-size:7.91px"
     id="text3231"
     x="361.16953"
     y="128.95616"><tspan
       id="tspan3229">10:4</tspan></text>
  <text
     transform="rotate(107.98898)"
     style="font-size:9px"
     id="text3235"
     x="458.4024"
     y="-338.30417"><tspan
       id="tspan3233">20:3</tspan></text>
  <text
     transform="rotate(-90)"
     style="font-size:9px"
     id="text3239"
     x="-547.38531"
     y="13.2"><tspan
       id="tspan3237">12:3</tspan></text>
  <text
     transform="rotate(-174.85526)"
     style="font-size:9px"
     id="text3243"
     x="-98.566803"
     y="-565.29279"><tspan
       id="tspan3241">9.:1</tspan></text>
  <text
     transform="rotate(135.84577)"
     style="font-size:7.91px"
     id="text3247"
     x="268.23785"
     y="-519.31354"><tspan
       id="tspan3245">9.:4</tspan></text>
</svg>

<?xml version='1.0' encoding='UTF-8' standalone='no'?>
    <svg xmlns='http://www.w3.org/2000/svg' xmlns:xlink='http://www.w3.org/1999/xlink' version='1.1'
    width='300.00mm' height='600.00mm' viewBox='0 0 300.00 600.00'>
<style type="text/css">
    path {
        fill: none;
        stroke-linecap: butt;
        stroke-linejoin: bevel;
        stroke-dasharray: none;
    }
    path.outer {
        stroke: #000000;
        stroke-dasharray: none;
        stroke-dashoffset: 0;
        stroke-width: 0.3;
        stroke-opacity: 1.0;
    }
    path.convex {
        stroke: #000000;
        stroke-dasharray: 0.50,1.00;
        stroke-dashoffset:0;
        stroke-width:0.2;
        stroke-opacity: 1.0
    }
    path.concave {
        stroke: #000000;
        stroke-dasharray: 1.00,0.50,0.20,0.50;
        stroke-dashoffset: 0;
        stroke-width: 0.2;
        stroke-opacity: 1.0
    }
    path.freestyle {
        stroke: #000000;
        stroke-dasharray: none;
        stroke-dashoffset: 0;
        stroke-width: 0.2;
        stroke-opacity: 1.0
    }
    path.outer_background {
        stroke: #ffffff;
        stroke-opacity: 1.0;
        stroke-width: 0.5
    }
    path.inner_background {
        stroke: #ffffff;
        stroke-opacity: 1.0;
        stroke-width: 0.2
    }
    path.sticker {
        fill: #e5e5e5;
        stroke: none;
        fill-opacity: 1.0;
    }
    path.arrow {
        fill: #000000;
    }
    text {
        font-style: normal;
        fill: #000000;
        fill-opacity: 1.0;
        stroke: none;
    }
    text, tspan {
        text-anchor:middle;
    }
    </style>
<g>
<text transform='translate(101.5929551795125 142.22383964806795)' style='font-size:10.00'><tspan>[8] I 8</tspan></text>
<path class='sticker' d=' M 15.000001 451.776187 L 5.000000 451.619084 L 5.000059 376.061360 L 15.000060 375.904272 Z
M 174.500247 351.364995 L 187.636797 359.441827 L 191.930910 372.666488 L 182.468255 375.904228 Z
M 182.468255 375.904228 L 192.451467 375.304113 L 198.185910 450.862790 L 188.226481 451.776202 Z
M 15.000060 375.904272 L 5.000059 375.747184 L 5.000060 337.682332 L 15.000060 336.429889 Z
M 15.000060 336.429889 L 14.895005 326.398904 L 79.227191 320.606704 L 80.280376 330.552335 Z
M 80.280376 330.552335 L 80.437471 320.552344 L 119.414781 320.552344 L 119.571877 330.552335 Z
M 119.571877 330.552335 L 121.710886 320.782538 L 163.723161 329.291488 L 161.892076 339.123662 Z
M 161.892076 339.123662 L 168.111761 332.915748 L 180.521880 344.964738 L 174.500247 351.364995 Z
M 15.000001 527.648102 L 5.000000 527.491014 L 5.000000 451.933290 L 15.000001 451.776187 Z
M 182.468255 527.648161 L 191.930895 530.885915 L 187.636753 544.110584 L 174.500187 552.187401 Z
M 188.226481 451.776202 L 198.185910 452.689598 L 192.451467 528.248283 L 182.468255 527.648161 Z
M 15.000001 567.122499 L 5.000001 565.870038 L 5.000000 527.805190 L 15.000001 527.648102 Z
M 80.280316 573.000024 L 79.227132 582.945650 L 14.894950 577.153492 L 15.000001 567.122499 Z
M 119.571817 573.000024 L 119.414722 583.000024 L 80.437412 583.000024 L 80.280316 573.000024 Z
M 161.892016 564.428727 L 163.723086 574.260910 L 121.710827 582.769841 L 119.571817 573.000024 Z
M 174.500187 552.187401 L 180.521821 558.587636 L 168.111716 570.636663 L 161.892016 564.428727 Z '/>
<path class='outer' d=' M 168.111761 332.915748 L 180.521880 344.964738 L 174.500247 351.364995 L 187.636797 359.441827 L 191.930910 372.666488 L 182.468255 375.904228 L 192.451467 375.304113 L 198.185910 450.862790 L 188.226481 451.776202 L 198.185910 452.689598 L 192.451467 528.248283 L 182.468255 527.648161 L 191.930895 530.885915 L 187.636753 544.110584 L 174.500187 552.187401 L 180.521821 558.587636 L 168.111716 570.636663 L 161.892016 564.428727 L 163.723086 574.260910 L 121.710827 582.769841 L 119.571817 573.000024 L 119.414722 583.000024 L 80.437412 583.000024 L 80.280316 573.000024 L 79.227132 582.945650 L 14.894950 577.153492 L 15.000001 567.122499 L 5.000001 565.870038 L 5.000000 527.805190 L 15.000001 527.648102 L 5.000000 527.491014 L 5.000000 451.933290 L 15.000001 451.776187 L 5.000000 451.619084 L 5.000059 376.061360 L 15.000060 375.904272 L 5.000059 375.747184 L 5.000060 337.682332 L 15.000060 336.429889 L 14.895005 326.398904 L 79.227191 320.606704 L 80.280376 330.552335 L 80.437471 320.552344 L 119.414781 320.552344 L 119.571877 330.552335 L 121.710886 320.782538 L 163.723161 329.291488 L 161.892076 339.123662 Z '/>
<text transform='matrix(0.308832 0.951117 -0.951117 0.308832 180.196260 363.078709)' style='font-size:9.00'><tspan>20:1</tspan></text>
<text transform='matrix(0.000000 -1.000000 1.000000 0.000000 13.200060 356.167073)' style='font-size:9.00'><tspan>12:1</tspan></text>
<text transform='matrix(0.995971 -0.089672 0.089672 0.995971 47.478811 331.698353)' style='font-size:9.00'><tspan>10:1</tspan></text>
<text transform='matrix(0.717468 0.696592 -0.696592 0.717468 169.297879 344.109590)' style='font-size:7.91'><tspan>10:4</tspan></text>
<text transform='matrix(-0.308834 0.951116 -0.951116 -0.308834 180.196230 540.473684)' style='font-size:9.00'><tspan>20:3</tspan></text>
<text transform='matrix(0.000000 -1.000000 1.000000 0.000000 13.200001 547.385301)' style='font-size:9.00'><tspan>12:3</tspan></text>
<text transform='matrix(-0.995971 -0.089672 0.089672 -0.995971 47.478751 571.854009)' style='font-size:9.00'><tspan>9.:1</tspan></text>
<text transform='matrix(-0.717467 0.696592 -0.696592 -0.717467 169.297819 559.442799)' style='font-size:7.91'><tspan>9.:4</tspan></text>
</g>
</svg>
